docs/inc/icons/lock.svg

<svg height="16" viewBox="0 0 12 16" width="12" xmlns="http://www.w3.org/2000/svg"><path d="m4 13h-1v-1h1zm8-6v7c0 .55-.45 1-1 1h-10c-.55 0-1-.45-1-1v-7c0-.55.45-1 1-1h1v-2c0-2.2 1.8-4 4-4s4 1.8 4 4v2h1c.55 0 1 .45 1 1zm-8.2-1h4.41v-2c0-1.22-.98-2.2-2.2-2.2s-2.2.98-2.2 2.2v2zm7.2 1h-9v7h9zm-7 1h-1v1h1zm0 2h-1v1h1z" fill-rule="evenodd"/></svg>

<svg xmlns="http://www.w3.org/2000/svg" width="12" height="16" viewBox="0 0 12 16"><path fill-rule="evenodd" d="M4 13H3v-1h1v1zm8-6v7c0 .55-.45 1-1 1H1c-.55 0-1-.45-1-1V7c0-.55.45-1 1-1h1V4c0-2.2 1.8-4 4-4s4 1.8 4 4v2h1c.55 0 1 .45 1 1zM3.8 6h4.41V4c0-1.22-.98-2.2-2.2-2.2-1.22 0-2.2.98-2.2 2.2v2H3.8zM11 7H2v7h9V7zM4 8H3v1h1V8zm0 2H3v1h1v-1z"/></svg>
